launcher/android/assets/skins/day/svg/toast_background.svg

<svg enable-background="new 0 0 35.50 35.00" height="35" viewBox="0 0 35.5 35" width="35.5001" xmlns="http://www.w3.org/2000/svg"><path d="m9.5 1.49994h16.5001c4.4182 0 8 3.58179 8 8v16.00016c0 4.4182-3.5818 8-8 8h-16.5001c-4.41827 0-8-3.5818-8-8v-16.00016c0-4.41821 3.58173-8 8-8z" fill="#fff" stroke="#8c9e64" stroke-linejoin="round" stroke-width="3"/><path d="m9.24991 1.25391h16.99999c4.4183 0 8 3.58172 8 7.99994v16.49235c0 4.4183-3.5817 8-8 8h-16.99999c-4.41831 0-8-3.5817-8-8v-16.49235c0-4.41822 3.58169-7.99994 8-7.99994z" fill="none" stroke="#000" stroke-linejoin="round" stroke-width=".5"/></svg>

﻿<?xml version="1.0" encoding="utf-8"?>
<!DOCTYPE svg PUBLIC "-//W3C//DTD SVG 1.1//EN" "http://www.w3.org/Graphics/SVG/1.1/DTD/svg11.dtd">
<svg xmlns="http://www.w3.org/2000/svg" xmlns:xlink="http://www.w3.org/1999/xlink" version="1.1" baseProfile="full" width="35.5001" height="35" viewBox="0 0 35.50 35.00" enable-background="new 0 0 35.50 35.00" xml:space="preserve">
	<path fill="#FFFFFF" fill-opacity="1" stroke-width="3" stroke-linejoin="round" stroke="#8C9E64" stroke-opacity="1" d="M 9.5,1.49994L 26.0001,1.49994C 30.4183,1.49994 34.0001,5.08173 34.0001,9.49994L 34.0001,25.5001C 34.0001,29.9183 30.4183,33.5001 26.0001,33.5001L 9.5,33.5001C 5.08173,33.5001 1.5,29.9183 1.5,25.5001L 1.5,9.49994C 1.5,5.08173 5.08173,1.49994 9.5,1.49994 Z "/>
	<path fill="none" stroke-width="0.5" stroke-linejoin="round" stroke="#000000" stroke-opacity="1" d="M 9.24991,1.25391L 26.2499,1.25391C 30.6682,1.25391 34.2499,4.83563 34.2499,9.25385L 34.2499,25.7462C 34.2499,30.1645 30.6682,33.7462 26.2499,33.7462L 9.24991,33.7462C 4.8316,33.7462 1.24991,30.1645 1.24991,25.7462L 1.24991,9.25385C 1.24991,4.83563 4.8316,1.25391 9.24991,1.25391 Z "/>
</svg>
